X:48
T:Britches Full of Stitches
M:2/4
L:1/8
Z:abc-transcription Josh Larios <hades@elsewhere.org>, 2014.02.21
S:Sarah Comer's dance band class, 2014.02.20
K:A
|: "A"A>B cA | BA cA | A>B cA | BA "D"F"<("">)"E | "A"A>B cA | BA ce | "D"A>B AF | "E"FE E2 :|
|: "A"e>f ec | BA Bc | e>f ec | BA "D"F2 | "A"e>f ec | BA Bc | "D"A>B AF | "E"FE E2 :|

